projects/svn/images/icons/arrow-down--black.svg

<svg width="34" height="24" viewBox="0 0 34 24" fill="none" xmlns="http://www.w3.org/2000/svg">
<path d="M26.4062 14.2313L25.2518 13.2984L17.3243 21.4922V0L15.785 0L15.785 21.4922L7.85749 13.2984L6.70814 14.2313L16.1595 24H16.9549L26.4062 14.2313Z" fill="black"/>
</svg>

<svg width="34" height="24" fill="none" xmlns="http://www.w3.org/2000/svg"><path d="M26.406 14.231l-1.154-.933-7.928 8.194V0h-1.539v21.492l-7.928-8.194-1.149.933L16.16 24h.795l9.451-9.769z" fill="#000"/></svg>
